**harm	**harte	**timestamp	**phrase	**leadinstrument	**kern
*M4/4	*M4/4	*	*	*	*
*A-:	*A-:	*	*	*	*A-:
1r;	N	0	.	r	1r;
=1	=1	=1	=1	=1	=1
*>A_intro	*>A_intro	*>A_intro	*>A_intro	*>A_intro	*>A_intro
1I	A-:maj	0.441	newline	saxophone	1A- 1cc 1ee-
=2	=2	=2	=2	=2	=2
1vi	F:min	3.672	.	saxophone	1F 1a- 1cc
=3	=3	=3	=3	=3	=3
1IV	D-:maj	6.903	.	saxophone	1D- 1f 1a-
=4	=4	=4	=4	=4	=4
2V	E-:maj	10.133	.	saxophone	2E- 2g 2b-
2IV	D-:maj	11.749	.	saxophone	2D- 2f 2a-
=5	=5	=5	=5	=5	=5
*>B_verse	*>B_verse	*>B_verse	*>B_verse	*>B_verse	*>B_verse
1I	A-:maj	13.364	newline	voice	1A- 1cc 1ee-
=6	=6	=6	=6	=6	=6
1I	A-:maj6	16.63	.	voice	1A- 1cc 1ee-
=7	=7	=7	=7	=7	=7
1I7	A-:maj7	19.896	.	voice	1A- 1cc 1ee- 1gg
=8	=8	=8	=8	=8	=8
1I7	A-:maj7	23.162	.	voice	1A- 1cc 1ee- 1gg
=9	=9	=9	=9	=9	=9
1IV	D-:maj	26.428	newline	voice	1D- 1f 1a-
=10	=10	=10	=10	=10	=10
1IV	D-:maj	29.693	.	voice	1D- 1f 1a-
=11	=11	=11	=11	=11	=11
1IV	D-:maj	32.958	.	voice	1D- 1f 1a-
=12	=12	=12	=12	=12	=12
1IV	D-:maj	36.223	.	voice	1D- 1f 1a-
=13	=13	=13	=13	=13	=13
2I	A-:maj	39.488	newline	voice	2A- 2cc 2ee-
2vi	F:min	41.098	.	voice	2F 2a- 2cc
=14	=14	=14	=14	=14	=14
2IV	D-:maj	42.707	.	voice	2D- 2f 2a-
2V	E-:maj	44.317	.	voice	2E- 2g 2b-
=15	=15	=15	=15	=15	=15
*>B2_verse	*>B2_verse	*>B2_verse	*>B2_verse	*>B2_verse	*>B2_verse
1I	A-:maj	45.927	newline	voice	1A- 1cc 1ee-
=16	=16	=16	=16	=16	=16
1I	A-:maj6	49.198	.	voice	1A- 1cc 1ee-
=17	=17	=17	=17	=17	=17
1I7	A-:maj7	52.469	.	voice	1A- 1cc 1ee- 1gg
=18	=18	=18	=18	=18	=18
1I7	A-:maj7	55.74	.	voice	1A- 1cc 1ee- 1gg
=19	=19	=19	=19	=19	=19
1IV	D-:maj	59.011	newline	voice	1D- 1f 1a-
=20	=20	=20	=20	=20	=20
1IV	D-:maj	62.278	.	voice	1D- 1f 1a-
=21	=21	=21	=21	=21	=21
1IV	D-:maj	65.546	.	voice	1D- 1f 1a-
=22	=22	=22	=22	=22	=22
1IV	D-:maj	68.814	.	voice	1D- 1f 1a-
=23	=23	=23	=23	=23	=23
2I7	A-:maj7	72.081	newline	voice	2A- 2cc 2ee- 2gg
2vi	F:min	73.711	.	voice	2F 2a- 2cc
=24	=24	=24	=24	=24	=24
2IV	D-:maj	75.342	.	voice	2D- 2f 2a-
2III7	C:7	76.972	.	voice	2C 2e 2g 2b-
=25	=25	=25	=25	=25	=25
*>C_bridge	*>C_bridge	*>C_bridge	*>C_bridge	*>C_bridge	*>C_bridge
1vi	F:min	78.602	newline	voice	1F 1a- 1cc
=26	=26	=26	=26	=26	=26
1ii	B-:min	81.887	.	voice	1B- 1dd- 1ff
=27	=27	=27	=27	=27	=27
1viio7	G:hdim7	85.171	.	voice	1G 1b- 1dd- 1ff
=28	=28	=28	=28	=28	=28
1III7	C:7	88.455	.	voice	1C 1e 1g 1b-
=29	=29	=29	=29	=29	=29
1vi	F:min	91.739	newline	voice	1F 1a- 1cc
=30	=30	=30	=30	=30	=30
1ii	B-:min	95.018	.	voice	1B- 1dd- 1ff
=31	=31	=31	=31	=31	=31
1ii7	B-:min7	98.298	.	voice	1B- 1dd- 1ff 1aa-
=32	=32	=32	=32	=32	=32
1V7	E-:7	101.577	.	voice	1E- 1g 1b- 1dd-
=33	=33	=33	=33	=33	=33
*>D_verse	*>D_verse	*>D_verse	*>D_verse	*>D_verse	*>D_verse
1I7	A-:maj7	104.857	newline	voice	1A- 1cc 1ee- 1gg
=34	=34	=34	=34	=34	=34
1I	A-:maj6	108.139	.	voice	1A- 1cc 1ee-
=35	=35	=35	=35	=35	=35
1I7	A-:maj7	111.422	.	voice	1A- 1cc 1ee- 1gg
=36	=36	=36	=36	=36	=36
1Im7	A-:7(b13)	114.705	.	voice	1A- 1cc 1ee- 1gg
=37	=37	=37	=37	=37	=37
1ii	B-:min	117.987	newline	voice	1B- 1dd- 1ff
=38	=38	=38	=38	=38	=38
1VI7	F:7	121.253	.	voice	1F 1a 1cc 1ee-
=39	=39	=39	=39	=39	=39
1ii7	B-:min7	124.519	.	voice	1B- 1dd- 1ff 1aa-
=40	=40	=40	=40	=40	=40
1iii7	C:min7	127.785	.	voice	1C 1e- 1g 1b-
=41	=41	=41	=41	=41	=41
1IV7	D-:maj7	131.051	newline	voice	1D- 1f 1a- 1cc
=42	=42	=42	=42	=42	=42
1V7	E-:7	134.277	.	voice	1E- 1g 1b- 1dd-
=43	=43	=43	=43	=43	=43
1I7	A-:maj7	137.502	newline	voice	1A- 1cc 1ee- 1gg
=44	=44	=44	=44	=44	=44
1vi	F:min	140.823	.	voice	1F 1a- 1cc
=45	=45	=45	=45	=45	=45
1ii	B-:min	144.143	.	voice	1B- 1dd- 1ff
=46	=46	=46	=46	=46	=46
2V	E-:maj	147.463	.	voice	2E- 2g 2b-
2IV	D-:maj	149.124	.	voice	2D- 2f 2a-
=47	=47	=47	=47	=47	=47
1I	A-:maj	150.784	newline	voice	1A- 1cc 1ee-
1r;	N	153.771	.	r	1r;
1r;	N	156.758	.	r	1r;
1r;	N	159.526	.	r	1r;
*-	*-	*-	*-	*-	*-
!!!OTL: Where Or When
!!!COC: Dion
!!!BillboardChartDate: 1960/03/07, 1960/03/14
!!!BillboardPeak: 3, 3
!!!BillboardWeeksOnChart: 16, 16
!!!SampleTargetRank: 15, 18
!!!SampleActualRank: 15, 17
!!!SampleID#: 434, 816
!!!RDF**harmony: **recip + pitch class of root + harmonic quality
!!!RDF**harte: Chris Harte's syntax, used by MIREX
!!!RDF**phrase: newline = linebreak in original McGill transcription
!!!RDF**timestamp: McGill audio timestamp in seconds
!!!RDF**leadinstrument: original McGill primary instrumentation annotation
!!!RDT: 2017/01/12/
!!!ENC: Nathaniel Condit-Schultz
!!!EST: Awating manual error checking and editing.
